picto/fire-extinguisher-framed.svg

<svg class="color-immutable" width="30" height="30" viewBox="0 0 30 30" fill="none" xmlns="http://www.w3.org/2000/svg"><path d="M30 0H0V30H30V0Z" fill="#9B2423"/><path d="M25.5 3C26.325 3 27 3.675 27 4.5V25.5C27 26.325 26.325 27 25.5 27H4.5C3.675 27 3 26.325 3 25.5V4.5C3 3.675 3.675 3 4.5 3H25.5ZM25.5 2.625H4.5C3.46613 2.625 2.625 3.46613 2.625 4.5V25.5C2.625 26.5339 3.46613 27.375 4.5 27.375H25.5C26.5339 27.375 27.375 26.5339 27.375 25.5V4.5C27.375 3.46613 26.5339 2.625 25.5 2.625Z" fill="white"/><path d="M12.2833 9.53918V8.17815L12.9169 8.1558L13.5494 7.9443V7.05443L12.9391 6.7965L12.0252 6.8157V6.00008H10.2444V6.65595H9.32968L7.24505 8.50823C7.24505 8.50823 7.0094 8.67195 6.89278 9.58635C6.77533 10.5001 6.89278 10.9682 6.89278 10.9682L7.64353 10.9458L7.68995 9.79643L8.62745 8.83725L9.93973 8.32688V9.53768C9.92458 9.53768 9.90935 9.53918 9.89278 9.53918C8.978 9.564 8.1113 10.2653 8.1113 11.3915V24.0002H14.1578V11.3915C14.1581 10.5704 13.3137 9.53918 12.2833 9.53918ZM13.4782 15.5607H8.79215V12.7731H13.4782V15.5607Z" fill="white"/><path d="M23.1008 15.0824V12.7977C23.1008 12.7977 22.5836 12.6669 22.0456 11.9837C21.5972 11.4123 20.9354 9.56325 20.9354 9.56325C20.9354 9.56325 20.3569 11.4757 21.121 12.9382C21.9855 14.5961 23.1008 15.0824 23.1008 15.0824Z" fill="white"/><path d="M18.6101 12.109C18.8291 12.9914 19.2576 14.577 20.194 15.4096C21.6526 16.7068 23.1358 16.0991 23.1358 16.0991C23.1358 16.0991 22.016 15.7015 21.3654 14.5841C20.7129 13.4669 20.3338 11.9424 19.5479 11.2559C18.4648 10.3037 17.6116 10.6591 17.6116 10.6591C17.6116 10.6591 18.3595 11.0948 18.6101 12.109Z" fill="white"/><path d="M18.2468 14.0174C18.2468 14.0174 17.7564 15.7347 19.3014 17.4925C21.0481 19.4797 23.1009 19.612 23.1009 19.612V17.3273C23.1009 17.3273 21.7488 17.2045 20.4912 16.3507C18.7992 15.2006 18.2468 14.0174 18.2468 14.0174Z" fill="white"/><path d="M20.6251 21.35C22.3899 21.5922 23.1009 20.6683 23.1009 20.6683C23.1009 20.6683 22.3049 20.5928 21.2577 19.9313C20.5004 19.4511 19.4444 17.8948 18.2262 17.8948C16.8247 17.8948 16.5818 18.4361 16.5818 18.4361C16.5818 18.4361 17.2335 18.5646 17.842 19.0209C18.7181 19.6779 19.1801 21.1508 20.6251 21.35Z" fill="white"/><path d="M20.7956 21.9739C19.5601 21.8589 18.1484 20.7469 18.1484 20.7469C18.1484 20.7469 18.1546 21.8625 19.1085 22.9346C20.0639 24.0052 21.2306 23.9909 21.6146 23.9983C21.9638 24.0077 23.1016 23.9768 23.1016 23.9768L23.078 21.789C23.078 21.789 22.0288 22.0903 20.7956 21.9739Z" fill="white"/></svg>

<svg class="color-immutable" width="30" height="30" viewBox="0 0 30 30" fill="none" xmlns="http://www.w3.org/2000/svg"><g clip-path="url(#a)"><path d="M30 0H0v30h30V0Z" fill="#9B2423"/><path d="M25.5 3c.825 0 1.5.675 1.5 1.5v21c0 .825-.675 1.5-1.5 1.5h-21c-.825 0-1.5-.675-1.5-1.5v-21C3 3.675 3.675 3 4.5 3h21Zm0-.375h-21A1.877 1.877 0 0 0 2.625 4.5v21c0 1.034.841 1.875 1.875 1.875h21a1.877 1.877 0 0 0 1.875-1.875v-21A1.877 1.877 0 0 0 25.5 2.625Z" fill="#fff"/><path d="M12.283 9.54V8.177l.634-.022.632-.212v-.89l-.61-.258-.914.02V6h-1.78v.656H9.33L7.245 8.508s-.236.164-.352 1.078c-.118.914 0 1.382 0 1.382l.75-.022.047-1.15.937-.959 1.313-.51v1.21l-.047.002c-.915.025-1.782.726-1.782 1.853V24h6.047V11.392c0-.822-.844-1.853-1.875-1.853Zm1.195 6.02H8.792v-2.787h4.686v2.788ZM23.1 15.082v-2.284s-.516-.131-1.054-.814c-.449-.572-1.11-2.42-1.11-2.42s-.58 1.912.185 3.374c.864 1.658 1.98 2.144 1.98 2.144ZM18.61 12.109c.22.882.648 2.468 1.584 3.3 1.459 1.298 2.942.69 2.942.69s-1.12-.398-1.77-1.515c-.653-1.117-1.032-2.642-1.818-3.328-1.083-.952-1.936-.597-1.936-.597s.748.436.998 1.45Z" fill="#fff"/><path d="M18.247 14.017s-.49 1.718 1.054 3.476c1.747 1.987 3.8 2.119 3.8 2.119v-2.285s-1.352-.123-2.61-.976c-1.692-1.15-2.244-2.334-2.244-2.334ZM20.625 21.35c1.765.242 2.476-.682 2.476-.682s-.796-.075-1.843-.737c-.758-.48-1.814-2.036-3.032-2.036-1.401 0-1.644.541-1.644.541s.651.129 1.26.585c.876.657 1.338 2.13 2.783 2.329Z" fill="#fff"/><path d="M20.796 21.974c-1.236-.115-2.648-1.227-2.648-1.227s.007 1.116.96 2.188c.956 1.07 2.123 1.056 2.507 1.063.349.01 1.487-.021 1.487-.021l-.024-2.188s-1.05.301-2.282.185Z" fill="#fff"/></g><defs><clipPath id="a"><path fill="#fff" d="M0 0h30v30H0z"/></clipPath></defs></svg>
